src/icons/solid/communication/phone-callback.svg

<svg width="24" height="24" viewBox="0 0 24 24" fill="none" xmlns="http://www.w3.org/2000/svg">
<g clip-path="url(#clip0_4614_367)">
<path d="M5.49891 1.04056C7.14322 0.73039 8.11967 2.28192 8.76746 3.30325L8.85731 3.45364C9.50512 4.46499 10.3225 5.74663 9.96375 7.20853C9.7744 7.99954 9.20638 8.46035 8.74793 8.82083C8.66824 8.89089 8.58837 8.95097 8.50868 9.02103C8.38907 9.13118 8.249 9.23119 8.0995 9.34134C7.82047 9.5516 7.50206 9.79247 7.44227 9.99271C7.24323 10.6934 7.82054 11.604 8.03993 11.9546C8.86707 13.2663 9.84391 14.3579 10.9999 15.3091C11.4384 15.6696 12.1763 16.2806 12.7245 16.1704C13.0931 16.1003 13.3524 15.8305 13.7509 15.3902C14.2193 14.8795 14.8073 14.2377 15.7938 14.0874C17.3387 13.8471 18.3858 14.7893 19.1532 15.4702L19.6815 15.9302C20.4789 16.5911 21.5652 17.5028 21.4755 18.8345C21.4057 19.7257 20.7872 20.2565 20.3388 20.647L20.2489 20.7271C20.1095 20.8472 19.9702 20.9778 19.8407 21.1079C19.5518 21.3782 19.2526 21.668 18.9139 21.8882C17.7977 22.6192 16.4717 22.9898 14.9667 22.9898L14.9764 23.0005H14.6776C13.0333 22.9504 11.7475 22.3696 10.7011 21.8189C8.35896 20.5672 6.59515 18.7442 5.30946 17.3023C3.49551 15.2595 2.21904 13.1866 1.52137 11.1538C0.514821 8.18987 0.983482 5.07549 2.76746 3.03275C3.00667 2.76238 3.31592 2.50209 3.62489 2.24173L4.07313 1.86087C4.42194 1.55046 4.85114 1.16071 5.49891 1.04056Z" fill="#3C3B44"/>
<path d="M15.8475 1.10306C16.1453 0.915311 16.5485 0.990615 16.7479 1.27103C16.9473 1.55145 16.867 1.9309 16.5692 2.11868L14.6747 3.314L18.4706 3.31302L18.705 3.31693C21.1099 3.40307 22.9999 4.73168 22.9999 7.36868C22.9997 9.1463 21.4999 11.0902 18.1991 11.0904H16.9999C16.6416 11.0903 16.3514 10.8165 16.3514 10.479C16.3517 10.1418 16.6417 9.86876 16.9999 9.86868H18.1991C21.4996 9.86855 21.702 8.1466 21.702 7.36868C21.702 5.14646 20.2624 4.5347 18.4579 4.5347H14.6112L16.6102 6.02005C16.8916 6.22899 16.9404 6.61344 16.7186 6.87845C16.4967 7.14347 16.0879 7.189 15.8065 6.98001L12.247 4.33646C12.084 4.21542 11.9928 4.02787 12.0009 3.83255C12.0089 3.63721 12.1155 3.45695 12.288 3.34818L15.8475 1.10306Z" fill="#3C3B44"/>
</g>
<defs>
<clipPath id="clip0_4614_367">
<rect width="24" height="24" fill="white"/>
</clipPath>
</defs>
</svg>

<svg xmlns="http://www.w3.org/2000/svg" width="24" height="24" fill="none" viewBox="0 0 24 24"><g fill="currentColor" clip-path="url(#a)"><path d="M5.499 1.04c1.644-.31 2.62 1.242 3.268 2.263l.09.15c.648 1.012 1.466 2.294 1.107 3.756-.19.79-.758 1.251-1.216 1.612-.08.07-.16.13-.24.2-.119.11-.259.21-.408.32-.28.21-.598.451-.658.652-.199.7.379 1.611.598 1.962A13.8 13.8 0 0 0 11 15.309c.438.36 1.176.972 1.725.861.368-.07.627-.34 1.026-.78.468-.51 1.056-1.152 2.043-1.303 1.545-.24 2.592.702 3.36 1.383l.527.46c.798.661 1.884 1.573 1.794 2.904-.07.892-.688 1.422-1.136 1.813l-.09.08c-.14.12-.279.25-.408.38-.29.271-.588.561-.927.781-1.116.731-2.442 1.102-3.947 1.102l.01.01h-.3c-1.644-.05-2.93-.63-3.976-1.181-2.342-1.252-4.106-3.075-5.392-4.517-1.813-2.043-3.09-4.115-3.788-6.148C.515 8.19.983 5.075 2.767 3.033c.24-.27.549-.53.858-.791l.448-.381c.349-.31.778-.7 1.426-.82m10.349.062a.674.674 0 0 1 .9.168c.2.28.119.66-.179.848l-1.894 1.195 3.796-.001.234.004C21.11 3.403 23 4.732 23 7.369c0 1.777-1.5 3.721-4.8 3.721H17c-.358 0-.649-.274-.649-.611s.29-.61.649-.61h1.2c3.3 0 3.502-1.722 3.502-2.5 0-2.223-1.44-2.834-3.244-2.834H14.61l2 1.485c.28.209.33.593.108.858a.677.677 0 0 1-.913.102l-3.559-2.644A.6.6 0 0 1 12 3.833a.6.6 0 0 1 .287-.485z"/></g><defs><clipPath id="a"><path fill="currentColor" d="M0 0h24v24H0z"/></clipPath></defs></svg>
